X:36
T:Crown The
M:6/4
L:1/4
Q:3/4=85
S:D.Wright, Extraordinary Collection, London 1713
Z:Pete Stewart, 2004 <www.hornpipemusic.co.uk>
K:A
a | e>dcd>ef | ecAG/A/BE | B3E2a | e>dcd>ef | ecAG/A/BE | A3A,2 ||
e | c>BAd>ef | f/e/f/g/ ab f/g/a | g3e2a | e>dcd/c/d/e/f | ecAEAG | A3A,2 |]

